X: 1488
T: Nihâvent Peşrev
C: Katip Çelebi
O: Turkey
F: http://compmusic.upf.edu/node/140
N: nihavent--pesrev--darbeyn----katip_celebi
N: makam= nihavent
N: form= pesrev
N: usul= darbeyn = 3/2
M: 3/2
L: 1/16
K: C _B _e  
Q: 1/4=72
%%MIDI tuningsystem comma53
G6d2c4B4  | c2B2c2d2c4d4  | z2e2d2c2B4c4  | \
w:   |   |   | 
d6c2B2A2G4  | 
w:   | 
A2B2A2B2A2B2G4  | z2B2A2G2^F2G2A2F2  | \
w:   |   | 
G6c2d4z4  | d2c2d2e2d4c4  | 
w:   |   | 
B2A2B2c2d6e2  | d4e2d2c4d2c2  | B4c2d2c4B4  | \
w:   |   |   | 
c2d2e2^f2d2e2c2d2  | 
w:   | 
B2c2A2B2G4e4  | d4c4B4A4  | G2A2B2c2d4z4  | \
w:   |   |   | 
d6e2^f4g4  | a2g2^f2e2d4z4  | 
w:   |   | 
z2a2g2^f2g4a4  | ^f6g2f4e4  | d6^f2e4d4  | \
w:   |   |   | 
c6e2d4c4  | B4A2B2G4z4  | 
w:   |   | 
A2B2A2B2A4B4  | A4B4G4z4  | A2B2A2G2^F2G2A2B2  | \
w:   |   |   | 
G4A4z4BAB2  | 
w:   | 
A6c2B4c4  | d4d4B3AG4  | A2c2B2A2A2G2G2^F2  | \
w:   |   |   | 
G8G4z4  | d6c2B2A2G2A2  | 
w:   |   | 
B2c2A2B2A4G4  | z2^f2e2d2e2f2g2e2  | \
w:   |   | 
^f2d2e2c2d6f2  | e4d4(3d2^c2B2c2d2  | 
w:   |   | 
^c4d4z4ede2  | d6^f2g4z4  | g6^f2g2f2e2d2  | \
w:   |   |   | 
c4g4^f6g2  | ^f4g2f2e4f2e2  | 
w:   |   | 
d6^f2e2d2c2d2  | c4e4d4c4  | B2A2B2c2B2A2G4  | \
w:   |   |   | 
z2B2A2G2A2B2c2d2  | 
w:   | 
c4d8z4  | d6e2^f4g4  | a2g2^f2e2d4z4  | \
w:   |   |   | 
z2a2g2^f2g4a4  | ^f6g2f4e4  | 
w:   |   | 
d6^f2e4d4  | c6e2d4c4  | B4A2B2G4z4  | A2B2A2B2A4B4  | \
w:   |   |   |   | 
A4B4G4z4  | 
w:   | 
A2B2A2G2^F2G2A2B2  | G4A4z4BAB2  | A6c2B4c4  | \
w:   |   |   | 
d4d4B3AG4  | 
w:   | 
A2c2B2A2A2G2G2^F2  | G8G4z4  | g6^f2g2f2e2d2  | \
w:   |   |   | 
c2B2c2d2c4B2c2  | 
w:   | 
d4c2d2e4d2e2  | ^f2gag2f2f2e2e2d2  | \
w:   |   | 
d6a2g4a2b2  | a2g2g2^f2f2e2e2d2  | 
w:   |   | 
d6g2a4z4  | g4a4a4c'4  | b2a2g2^f2g4z4  | \
w:   |   |   | 
c'2b4a2g4a4  | a2b2a2g2^f2e2e2d2  | 
w:   |   | 
d6e2d4c4  | B2c2A2B2G4d4  | c2B2A2B2A2G2A2^F2  | \
w:   |   |   | 
G6c2d4z4  | 
w:   | 
d6e2^f4g4  | a2g2^f2e2d4z4  | z2a2g2^f2g4a4  | \
w:   |   |   | 
^f6g2f4e4  | d6^f2e4d4  | 
w:   |   | 
c6e2d4c4  | B4A2B2G4z4  | A2B2A2B2A4B4  | \
w:   |   |   | 
A4B4G4z4  | A2B2A2G2^F2G2A2B2  | 
w:   |   | 
G4A4z4BAB2  | A6c2B4c4  | d4d4B3AG4  | A2c2B2A2A2G2G2^F2  | 
w:   |   |   |   | 
G8G4z4  | A6G2A2G2^F2G2  | A6B2A2B2G4  | \
w:   |   |   | 
z2e2d2c2B4d4  | c4B4d4z4  | 
w:   |   | 
B6A2B2A2G2^F2  | E4D4E4^F4  | G12z4  | B4A2B2G4D4  | \
w:   |   |   |   | 
G2A2B2c2d4g4  | 
w:   | 
f4e2d2c4z4  | g2f2e2d2c4f4  | f2g2f2e2e2d4c2  | \
w:   |   |   | 
d3cB4z2e2d2c2  | 
w:   | 
c2B2B2A2A2G2G2^F2  | G6c2d4z4  | d6e2^f4g4  | \
w:   |   |   | 
a2g2^f2e2d4z4  | 
w:   | 
z2a2g2^f2g4a4  | ^f6g2f4e4  | d6^f2e4d4  | \
w:   |   |   | 
c6e2d4c4  | B4A2B2G4z4  | 
w:   |   | 
A2B2A2B2A4B4  | A4B4G4z4  | A2B2A2G2^F2G2A2B2  | \
w:   |   |   | 
G4A4z4BAB2  | 
w:   | 
A6c2B4c4  | d4d4B3AG4  | A2c2B2A2A2G2G2^F2  | \
w:   |   |   | 
G8G4z4  | |


